public/img/facebook.svg

<svg width="42" height="42" fill="none" xmlns="http://www.w3.org/2000/svg"><path d="M24.403 19H22v-2c0-1.032.084-1.682 1.563-1.682h.868a1 1 0 001-1v-1.254c0-.523-.401-.97-.923-1.005A26.154 26.154 0 0022.693 12C19.98 12 18 13.657 18 16.699V19h-2a1 1 0 00-1 1v2a1 1 0 001 1l2-.001V31a1 1 0 001 1h2a1 1 0 001-1v-8.003l2.174-.001a1 1 0 00.993-.886l.229-1.996A1 1 0 0024.403 19z" fill="#fff"/><circle cx="21" cy="21" r="20.5" stroke="#fff"/></svg>

<svg width="42" height="42" viewBox="0 0 42 42" fill="none" xmlns="http://www.w3.org/2000/svg">
<path d="M24.403 19H22V17C22 15.968 22.084 15.318 23.563 15.318H24.431C24.983 15.318 25.431 14.87 25.431 14.318V13.064C25.431 12.541 25.03 12.094 24.508 12.059C23.904 12.018 23.299 11.999 22.693 12C19.98 12 18 13.657 18 16.699V19H16C15.448 19 15 19.448 15 20V22C15 22.552 15.448 23 16 23L18 22.999V31C18 31.552 18.448 32 19 32H21C21.552 32 22 31.552 22 31V22.997L24.174 22.996C24.682 22.996 25.109 22.615 25.167 22.11L25.396 20.114C25.465 19.521 25.001 19 24.403 19Z" fill="white"/>
<circle cx="21" cy="21" r="20.5" stroke="white"/>
</svg>
